src/pos-icons/emoticon-sad.svg

<svg height="24" viewBox="0 0 24 24" width="24" xmlns="http://www.w3.org/2000/svg"><path d="m12 2a10 10 0 0 0 -10 10 10 10 0 0 0 10 10 10 10 0 0 0 10-10 10 10 0 0 0 -10-10m-5 7.5c0-.8.7-1.5 1.5-1.5s1.5.7 1.5 1.5-.7 1.5-1.5 1.5-1.5-.7-1.5-1.5m7.77 7.73c-.45-.73-1.52-1.23-2.77-1.23s-2.32.5-2.77 1.23l-1.42-1.42c.9-1.09 2.44-1.81 4.19-1.81s3.29.72 4.19 1.81zm.73-6.23c-.8 0-1.5-.7-1.5-1.5s.7-1.5 1.5-1.5 1.5.7 1.5 1.5-.7 1.5-1.5 1.5z"/></svg>

<?xml version="1.0" encoding="UTF-8"?><!DOCTYPE svg PUBLIC "-//W3C//DTD SVG 1.1//EN" "http://www.w3.org/Graphics/SVG/1.1/DTD/svg11.dtd"><svg xmlns="http://www.w3.org/2000/svg" xmlns:xlink="http://www.w3.org/1999/xlink" version="1.1" id="mdi-emoticon-sad" width="24" height="24" viewBox="0 0 24 24"><path d="M12,2A10,10 0 0,0 2,12A10,10 0 0,0 12,22A10,10 0 0,0 22,12A10,10 0 0,0 12,2M7,9.5C7,8.7 7.7,8 8.5,8C9.3,8 10,8.7 10,9.5C10,10.3 9.3,11 8.5,11C7.7,11 7,10.3 7,9.5M14.77,17.23C14.32,16.5 13.25,16 12,16C10.75,16 9.68,16.5 9.23,17.23L7.81,15.81C8.71,14.72 10.25,14 12,14C13.75,14 15.29,14.72 16.19,15.81L14.77,17.23M15.5,11C14.7,11 14,10.3 14,9.5C14,8.7 14.7,8 15.5,8C16.3,8 17,8.7 17,9.5C17,10.3 16.3,11 15.5,11Z" /></svg>
